components/icon/svg/24/navigation_link.svg

<?xml version="1.0" encoding="UTF-8"?>
<svg width="24px" height="24px" viewBox="0 0 24 24" version="1.1" xmlns="http://www.w3.org/2000/svg" xmlns:xlink="http://www.w3.org/1999/xlink">
    <!-- Generator: Sketch 64 (93537) - https://sketch.com -->
    <title>ic-db_navigation_link_24</title>
    <desc>Created with Sketch.</desc>
    <g id="Symbols" stroke="none" stroke-width="1" fill="none" fill-rule="evenodd">
        <g id="24dp-Icon/Navigation/Link" fill="#282D37">
            <path d="M6.0312,18 C6.25,18 6.5,17.9062 6.6875,17.7188 L15,9.4062 L15,15 C15,15.5938 15.4688,16.0312 16,16.0312 C16.5312,16.0312 17,15.5625 17,15 L17,6.9062 C17,6.375 16.5312,6 16,6 L8,6 C7.4062,6 7,6.4688 7,7 C7,7.5 7.4688,8 8,8 L13.5938,8 L5.2188,16.375 C5.0625,16.5312 5,16.7812 5,16.9688 C5,17.5625 5.4375,18 6.0312,18 Z" id="🎨-Color"></path>
        </g>
    </g>
</svg>

<svg width="24" height="24" xmlns="http://www.w3.org/2000/svg"><path d="M6.031 18a.953.953 0 00.657-.281L15 9.406V15c0 .594.469 1.031 1 1.031s1-.468 1-1.031V6.906C17 6.375 16.531 6 16 6H8c-.594 0-1 .469-1 1 0 .5.469 1 1 1h5.594l-8.375 8.375c-.157.156-.219.406-.219.594C5 17.562 5.438 18 6.031 18z" fill="#282D37" fill-rule="evenodd"/></svg>
